media/costumes/7-glow.svg

<svg width="64" height="86" xmlns="http://www.w3.org/2000/svg"><path fill="#0CC" d="M63.416 17.69c0 1-.1 2.01-.3 3-.06.3-.13.59-.21.88-1.14 4.03-3.73 10.7-8.13 21l-5.69 16.62c-.7 2.41-1.71 5.81-3.02 10.2-.03.11-.07.22-.11.33-.01.05-.08.28-.12.79-.13 2.02-.41 3.76-.84 5.31-.78 2.88-2.54 5.43-4.99 7.18-1.24.9-2.65 1.52-4.13 1.83-.26.07-.67.18-1.25.34-1.22.36-2.49.54-3.78.54-1.52 0-3.06-.25-4.58-.75-1.92-.64-3.62-1.79-4.92-3.31a11.035 11.035 0 0 1-2.9-3.89c-1.24-2.77-1.47-5.85-.68-9.15.42-1.89 1.1-4.51 2.09-8 .05-.18.11-.37.17-.55.85-2.49 2.1-6.3 3.72-11.35.17-.5.36-.98.59-1.44.35-1.35.72-2.67 1.12-3.97-2.54 1.87-5.66 2.89-9.11 2.89-1.85 0-3.7-.29-5.5-.88-4.92-1.58-8.31-5.45-9.06-10.38-.01-.04-.02-.08-.02-.12-.29-2.02-.28-4.7.04-8.84-.06-.79-.16-2.21-.3-4.26 0-.05-.01-.1-.01-.15-.06-1.09-.22-2.02-.47-2.75-.02-.04-.03-.07-.04-.1-.59-1.78-2.39-7.16 1.13-12.07C5.096 2.42 9.766 0 14.946 0c4.31 0 8.22 1.76 10.97 4.81.56.02 1.12.07 1.67.16 3.87.6 7.59 1.89 11.1 3.85 2.51-2.92 6.27-4.68 10.65-4.68 8.16 0 14.08 5.7 14.08 13.55z"/><path fill="#FFF" d="M52.325 18.569c-.998 3.518-3.606 10.203-7.829 20.055-.118.352-2.082 6.1-5.894 17.24a2035.19 2035.19 0 0 1-3.078 10.379c-.353 1.057-.572 2.229-.66 3.52-.088 1.289-.25 2.344-.483 3.166-.118.469-.382.85-.792 1.145-.059 0-.733.176-2.022.527-.528.176-1.144.145-1.848-.088-.235-.412-.646-.822-1.231-1.232-.235-.527-.235-1.26 0-2.197.354-1.641 1.003-4.131 1.949-7.475.879-2.579 2.14-6.42 3.783-11.521.058 0 .176-.146.352-.44 1.053-4.341 2.371-8.417 3.952-12.229 1.11-2.58 2.574-6.509 4.39-11.787-.235.059-.587.088-1.056.088-2.581-.293-4.429-.689-5.542-1.188-1.114-.498-2.785-1.334-5.014-2.508-2.405-1.583-4.134-2.375-5.189-2.375-.587 0-1.1.338-1.539 1.012-.44.675-.836 1.335-1.188 1.979-.06.118-.323.587-.792 1.407-.352 1.115-1.086 3.254-2.199 6.421-.763 1.818-2.11 2.728-4.046 2.728a6.607 6.607 0 0 1-2.111-.353c-.938-.292-1.466-.82-1.583-1.583-.176-1.231-.118-3.635.176-7.213 0-.058-.118-1.76-.352-5.102-.118-2.111-.47-4.016-1.056-5.718-.411-1.231-.527-1.964-.352-2.198.938-1.35 2.228-2.023 3.87-2.023 1.524 0 2.639.646 3.343 1.936.409.762.557 1.965.439 3.605-.235 1.818-.206 3.05.088 3.694 2.814-3.224 5.189-4.69 7.125-4.397 2.639.41 5.189 1.318 7.652 2.727a89.65 89.65 0 0 1 3.958 2.375c1.584.938 2.873 1.495 3.871 1.671.703.118 1.904-.321 3.606-1.319.879-.527 1.348-1.686 1.407-3.475.058-1.787 1.025-2.683 2.902-2.683 2.052 0 3.079.851 3.079 2.551.002.292-.028.585-.086.878z"/></svg>

<svg version="1.1" width="64" height="86" xmlns="http://www.w3.org/2000/svg" xmlns:xlink="http://www.w3.org/1999/xlink">
  <!-- Exported by Scratch - http://scratch.mit.edu/ -->
  <g id="ID0.8792078476399183">
    <g id="ID0.367456765845418">
      <g id="ID0.9400485535152256">
        <path id="ID0.22711717570200562" fill="#00CCCC" d="M 63.416 17.690 C 63.416 18.690 63.316 19.700 63.116 20.690 C 63.056 20.990 62.986 21.280 62.906 21.570 C 61.766 25.600 59.176 32.270 54.776 42.570 C 54.246 44.120 52.346 49.670 49.086 59.190 C 48.386 61.600 47.376 65 46.066 69.390 C 46.036 69.500 45.996 69.610 45.956 69.720 C 45.946 69.770 45.876 70 45.836 70.510 C 45.706 72.530 45.426 74.270 44.996 75.820 C 44.216 78.700 42.456 81.250 40.006 83 C 38.766 83.900 37.356 84.520 35.876 84.830 C 35.616 84.900 35.206 85.010 34.626 85.170 C 33.406 85.530 32.136 85.710 30.846 85.710 C 29.326 85.710 27.786 85.460 26.266 84.960 C 24.346 84.320 22.646 83.170 21.346 81.650 C 20.106 80.590 19.116 79.260 18.446 77.760 C 17.206 74.990 16.976 71.910 17.766 68.610 C 18.186 66.720 18.866 64.100 19.856 60.610 C 19.906 60.430 19.966 60.240 20.026 60.060 C 20.876 57.570 22.126 53.760 23.746 48.710 C 23.916 48.210 24.106 47.730 24.336 47.270 C 24.686 45.920 25.056 44.600 25.456 43.300 C 22.916 45.170 19.796 46.190 16.346 46.190 C 14.496 46.190 12.646 45.900 10.846 45.310 C 5.926 43.730 2.536 39.860 1.786 34.930 C 1.776 34.890 1.766 34.850 1.766 34.810 C 1.476 32.790 1.486 30.110 1.806 25.970 C 1.746 25.180 1.646 23.760 1.506 21.710 C 1.506 21.660 1.496 21.610 1.496 21.560 C 1.436 20.470 1.276 19.540 1.026 18.810 C 1.006 18.770 0.996 18.740 0.986 18.710 C 0.396 16.930 -1.404 11.550 2.116 6.640 C 5.096 2.420 9.766 0 14.946 0 C 19.256 0 23.166 1.760 25.916 4.810 C 26.476 4.830 27.036 4.880 27.586 4.970 C 31.456 5.570 35.176 6.860 38.686 8.820 C 41.196 5.900 44.956 4.140 49.336 4.140 C 57.496 4.140 63.416 9.840 63.416 17.690 Z "/>
      </g>
    </g>
    <g id="ID0.15067844418808818">
      <path id="ID0.42698933370411396" fill="#FFFFFF" d="M 52.325 18.569 C 51.327 22.087 48.719 28.772 44.496 38.624 C 44.378 38.976 42.414 44.724 38.602 55.864 C 37.899 58.269 36.872 61.729 35.524 66.243 C 35.171 67.300 34.952 68.472 34.864 69.763 C 34.776 71.052 34.614 72.107 34.381 72.929 C 34.263 73.398 33.999 73.779 33.589 74.074 C 33.530 74.074 32.856 74.250 31.567 74.601 C 31.039 74.777 30.423 74.746 29.719 74.513 C 29.484 74.101 29.073 73.691 28.488 73.281 C 28.253 72.754 28.253 72.021 28.488 71.084 C 28.842 69.443 29.491 66.953 30.437 63.609 C 31.316 61.030 32.577 57.189 34.220 52.088 C 34.278 52.088 34.396 51.942 34.572 51.648 C 35.625 47.307 36.943 43.231 38.524 39.419 C 39.634 36.839 41.098 32.910 42.914 27.632 C 42.679 27.691 42.327 27.720 41.858 27.720 C 39.277 27.427 37.429 27.031 36.316 26.532 C 35.202 26.034 33.531 25.198 31.302 24.024 C 28.897 22.441 27.168 21.649 26.113 21.649 C 25.526 21.649 25.013 21.987 24.574 22.661 C 24.134 23.336 23.738 23.996 23.386 24.640 C 23.326 24.758 23.063 25.227 22.594 26.047 C 22.242 27.162 21.508 29.301 20.395 32.468 C 19.632 34.286 18.285 35.196 16.349 35.196 C 15.646 35.196 14.942 35.079 14.238 34.843 C 13.300 34.551 12.772 34.023 12.655 33.260 C 12.479 32.029 12.537 29.625 12.831 26.047 C 12.831 25.989 12.713 24.287 12.479 20.945 C 12.361 18.834 12.009 16.929 11.423 15.227 C 11.012 13.996 10.896 13.263 11.071 13.029 C 12.009 11.679 13.299 11.006 14.941 11.006 C 16.465 11.006 17.580 11.652 18.284 12.942 C 18.693 13.704 18.841 14.907 18.723 16.547 C 18.488 18.365 18.517 19.597 18.811 20.241 C 21.625 17.017 24 15.551 25.936 15.844 C 28.575 16.254 31.125 17.162 33.588 18.571 C 34.937 19.334 36.256 20.126 37.546 20.946 C 39.130 21.884 40.419 22.441 41.417 22.617 C 42.120 22.735 43.321 22.296 45.023 21.298 C 45.902 20.771 46.371 19.612 46.430 17.823 C 46.488 16.036 47.455 15.140 49.332 15.140 C 51.384 15.140 52.411 15.991 52.411 17.691 C 52.413 17.983 52.383 18.276 52.325 18.569 Z "/>
    </g>
  </g>
</svg>
